src/svgs/debt.svg

<svg xmlns="http://www.w3.org/2000/svg" viewBox="0 0 24 24" width="512" height="512"><path d="M18 8h-3a1 1 0 010-2h2a2 2 0 000-4H7a2 2 0 000 4h2a1 1 0 010 2H6a2 2 0 00-2 2v10a2 2 0 002 2h12a2 2 0 002-2V10a2 2 0 00-2-2zm-5.119 10.806V20h-1.793v-1.206a2.209 2.209 0 01-1.919-2.125h1.225c.062.656.512 1.169 1.656 1.169 1.225 0 1.5-.613 1.5-.994 0-.519-.275-1.006-1.669-1.338-1.55-.375-2.612-1.012-2.612-2.294a2.048 2.048 0 011.819-2.006V10h1.793v1.219a2.207 2.207 0 011.781 2.118h-1.224c-.032-.693-.4-1.168-1.388-1.168-.938 0-1.5.425-1.5 1.025 0 .525.406.868 1.669 1.193s2.612.869 2.612 2.444c-.006 1.144-.862 1.769-1.95 1.975z"/></svg>

<svg xmlns="http://www.w3.org/2000/svg" viewBox="0 0 24 24"><path d="M18,8H15a1,1,0,0,1,0-2h2a2,2,0,0,0,0-4H7A2,2,0,0,0,7,6H9A1,1,0,0,1,9,8H6a2,2,0,0,0-2,2V20a2,2,0,0,0,2,2H18a2,2,0,0,0,2-2V10A2,2,0,0,0,18,8ZM12.881,18.806V20H11.088V18.794a2.209,2.209,0,0,1-1.919-2.125h1.225c.062.656.512,1.169,1.656,1.169,1.225,0,1.5-.613,1.5-.994,0-.519-.275-1.006-1.669-1.338-1.55-.375-2.612-1.012-2.612-2.294a2.048,2.048,0,0,1,1.819-2.006V10h1.793v1.219a2.207,2.207,0,0,1,1.781,2.118H13.438c-.032-.693-.4-1.168-1.388-1.168-.938,0-1.5.425-1.5,1.025,0,.525.406.868,1.669,1.193s2.612.869,2.612,2.444C14.825,17.975,13.969,18.6,12.881,18.806Z"/></svg>
